src/assets/img/icons/duotone-icons/Files/Deleted-folder.svg

<?xml version="1.0" encoding="UTF-8"?>
<svg width="24px" height="24px" viewBox="0 0 24 24" version="1.1" xmlns="http://www.w3.org/2000/svg" xmlns:xlink="http://www.w3.org/1999/xlink">
    <!-- Generator: Sketch 52.2 (67145) - http://www.bohemiancoding.com/sketch -->
    <title>Stockholm-icons / Files / Deleted-folder</title>
    <desc>Created with Sketch.</desc>
    <g id="Stockholm-icons-/-Files-/-Deleted-folder" stroke="none" stroke-width="1" fill="none" fill-rule="evenodd">
        <rect id="bound" x="0" y="0" width="24" height="24"></rect>
        <path d="M3.5,21 L20.5,21 C21.3284271,21 22,20.3284271 22,19.5 L22,8.5 C22,7.67157288 21.3284271,7 20.5,7 L10,7 L7.43933983,4.43933983 C7.15803526,4.15803526 6.77650439,4 6.37867966,4 L3.5,4 C2.67157288,4 2,4.67157288 2,5.5 L2,19.5 C2,20.3284271 2.67157288,21 3.5,21 Z" id="Combined-Shape" fill="#335EEA" opacity="0.3"></path>
        <path d="M10.5857864,14 L9.17157288,12.5857864 C8.78104858,12.1952621 8.78104858,11.5620972 9.17157288,11.1715729 C9.56209717,10.7810486 10.1952621,10.7810486 10.5857864,11.1715729 L12,12.5857864 L13.4142136,11.1715729 C13.8047379,10.7810486 14.4379028,10.7810486 14.8284271,11.1715729 C15.2189514,11.5620972 15.2189514,12.1952621 14.8284271,12.5857864 L13.4142136,14 L14.8284271,15.4142136 C15.2189514,15.8047379 15.2189514,16.4379028 14.8284271,16.8284271 C14.4379028,17.2189514 13.8047379,17.2189514 13.4142136,16.8284271 L12,15.4142136 L10.5857864,16.8284271 C10.1952621,17.2189514 9.56209717,17.2189514 9.17157288,16.8284271 C8.78104858,16.4379028 8.78104858,15.8047379 9.17157288,15.4142136 L10.5857864,14 Z" id="Combined-Shape" fill="#335EEA"></path>
    </g>
</svg>

<svg width="24" height="24" viewBox="0 0 24 24" xmlns="http://www.w3.org/2000/svg"><g fill="none" fill-rule="evenodd"><path d="M0 0h24v24H0z"/><path d="M3.5 21h17a1.5 1.5 0 001.5-1.5v-11A1.5 1.5 0 0020.5 7H10L7.44 4.44A1.5 1.5 0 006.378 4H3.5A1.5 1.5 0 002 5.5v14A1.5 1.5 0 003.5 21z" fill="#335EEA" opacity=".3"/><path d="M10.586 14l-1.414-1.414a1 1 0 111.414-1.414L12 12.586l1.414-1.414a1 1 0 111.414 1.414L13.414 14l1.414 1.414a1 1 0 11-1.414 1.414L12 15.414l-1.414 1.414a1 1 0 11-1.414-1.414L10.586 14z" fill="#335EEA"/></g></svg>
